X:1
T:[ID 5-55]
T:[ID 5-55]
T:Bezeichnung standardisiert: Menuet [mit Trio] Menuet Con Trio No 2.
T:Urheber unbekannt Erstbeleg: 1773 (Datum in der schriftlichen Quelle) Datum in der hier transkribierten schriftlichen Quelle: 1792
C:Urheber unbekannt
C:Erstbeleg: 1773 (Datum in der schriftlichen Quelle)
C:Datum in der hier transkribierten schriftlichen Quelle: 1792
L:1/8
M:3/4
K:F
V:1 treble 
V:1
 c2 | f2 fefa | g4 ec | a2 afba |{a} g4 ec | a2 fa g2 | f2 df e2 | d2 c2 ^B2 | c4 :: (c/B/A/G/) | %10
 ^F2 F2 FA | G4 (B/A/G/^F/) | E2 E2 EG | F4 c2 | f2 fefa | g4 ec | a2 afba | g4 ec | fc A2 G2 | %19
 F4 :|[M:3/4]"^Trio" !fermata!c4 d2 | c4 d2 | c2 B2 A2 |{A} G4 F2 | c4 d2 | c4 d2 | cB A2 G2 | %27
 F6 :: G2 A2 c2 | B2 A2 G2 | A2 B2 c2 | B2 A2 G2 | c4 d2 | c4 d2 | cB A2 G2 | F6 :| %36

